**harmony	**harte	**kern	**silbe	**kern	**silbe	**rhyme	**timestamp	**phrase
*M4/4	*M4/4	*ICvox	*	*ICvox	*	*	*	*
*	*	*VRlead	*	*VRharmonize	*	*	*	*
*	*	*Hstimme	*	*Nstimme	*	*	*	*
*E:	*E:	*E:	*	*E:	*	*	*	*
*	*	*M4/4	*	*M4/4	*	*	*	*
*	*	*clefG2	*	*clefG2	*	*	*	*
1r;	1r	1r	.	r;	.	.	0	.
=1	=1	=1	=1	=1	=1	=1	=1	=1
*>Letter>A	*>Letter>A	*>Letter>A	*>Letter>A	*>Letter>A	*>Letter>A	*>Letter>A	*>Letter>A	*>Letter>A
*>Label>Intro	*>Label>Intro	*>Label>Intro	*>Label>Intro	*>Label>Intro	*>Label>Intro	*>Label>Intro	*>Label>Intro	*>Label>Intro
1N	N	1r	.	1r	.	.	0.55	newline
=2	=2	=2	=2	=2	=2	=2	=2	=2
1N	N	1r	.	1r	.	.	2.439	.
=3	=3	=3	=3	=3	=3	=3	=3	=3
1EM	E:maj	1r	.	1r	.	.	4.329	.
=4	=4	=4	=4	=4	=4	=4	=4	=4
1EM	E:maj	1r	.	1r	.	.	6.219	.
=5	=5	=5	=5	=5	=5	=5	=5	=5
*>Letter>B	*>Letter>B	*>Letter>B	*>Letter>B	*>Letter>B	*>Letter>B	*>Letter>B	*>Letter>B	*>Letter>B
*>Label>Verse	*>Label>Verse	*>Label>Verse	*>Label>Verse	*>Label>Verse	*>Label>Verse	*>Label>Verse	*>Label>Verse	*>Label>Verse
1EM	E:maj	4.r	.	1r	.	.	8.108	newline
.	.	8e	The	.	.	.	.	.
.	.	4e	night	.	.	.	.	.
.	.	4d#	we	.	.	.	.	.
=6	=6	=6	=6	=6	=6	=6	=6	=6
1EM	E:maj	4d#	met	1r	.	.	9.947	.
.	.	4c#	I	.	.	.	.	.
.	.	4d#	knew	.	.	A	.	.
.	.	4e	I	.	.	.	.	.
=7	=7	=7	=7	=7	=7	=7	=7	=7
1F#m	F#:min	2r	.	1r	.	.	11.787	.
.	.	8f#	need-	.	.	.	.	.
.	.	8f#	-ed	.	.	.	.	.
.	.	4e	you	.	.	A	.	.
=8	=8	=8	=8	=8	=8	=8	=8	=8
1BM	B:maj	4d#	so	1r	.	B	13.626	.
.	.	4r	.	.	.	.	.	.
.	.	2r	.	.	.	.	.	.
=9	=9	=9	=9	=9	=9	=9	=9	=9
1EM	E:maj	4r	.	1r	.	.	15.465	.
.	.	8r	.	.	.	.	.	.
.	.	8e	And	.	.	.	.	.
.	.	8e	if	.	.	.	.	.
.	.	4.d#	I	.	.	.	.	.
=10	=10	=10	=10	=10	=10	=10	=10	=10
1EM	E:maj	4d#	had	1r	.	.	17.304	.
.	.	8c#	the	.	.	.	.	.
.	.	[8d#	chance	.	.	.	.	.
.	.	4d#]	_	.	.	.	.	.
.	.	4e	I'd	.	.	.	.	.
=11	=11	=11	=11	=11	=11	=11	=11	=11
1F#m	F#:min	4r	.	1r	.	.	19.143	.
.	.	8f#	ne-	.	.	.	.	.
.	.	8e	-ver	.	.	.	.	.
.	.	4f#	let	.	.	.	.	.
.	.	4e	you	.	.	A	.	.
=12	=12	=12	=12	=12	=12	=12	=12	=12
1BM	B:maj	4d#	go	1r	.	B	20.982	.
.	.	4r	.	.	.	.	.	.
.	.	2r	.	.	.	.	.	.
=13	=13	=13	=13	=13	=13	=13	=13	=13
*>Letter>C	*>Letter>C	*>Letter>C	*>Letter>C	*>Letter>C	*>Letter>C	*>Letter>C	*>Letter>C	*>Letter>C
*>Label>Bridge	*>Label>Bridge	*>Label>Bridge	*>Label>Bridge	*>Label>Bridge	*>Label>Bridge	*>Label>Bridge	*>Label>Bridge	*>Label>Bridge
1G#Mm	G#:7	4r	.	1r	.	.	22.821	newline
.	.	8r	.	.	.	.	.	.
.	.	8g#	So	.	.	B	.	.
.	.	4f##	won't	.	.	.	.	.
.	.	8g#	you	.	.	.	.	.
.	.	[8a	say	.	.	.	.	.
=14	=14	=14	=14	=14	=14	=14	=14	=14
1G#Mm	G#:7	8a]	_	1r	.	.	24.659	.
.	.	4g#	you	.	.	.	.	.
.	.	[8f##	love	.	.	C	.	.
.	.	8f	_	.	.	.	.	.
.	.	4.g#	me	.	.	A	.	.
=15	=15	=15	=15	=15	=15	=15	=15	=15
1C#Mm	C#:7	4r	.	1r	.	.	26.497	.
.	.	8r	.	.	.	.	.	.
.	.	[8g#	I'll	.	.	.	.	.
.	.	8g#]	_	.	.	.	.	.
.	.	8.f##]	make	.	.	.	.	.
.	.	8.g#	you	.	.	.	.	.
=16	=16	=16	=16	=16	=16	=16	=16	=16
1C#Mm	C#:7	4.a	so	1r	.	B	28.335	.
.	.	8g#	proud	.	.	.	.	.
.	.	8e#	of	.	.	C	.	.
.	.	4.c#	me	.	.	A	.	.
=17	=17	=17	=17	=17	=17	=17	=17	=17
1F#Mm	F#:7	4r	.	1r	.	.	30.173	newline
.	.	8r	.	.	.	.	.	.
.	.	8f#	We'll	.	.	A	.	.
.	.	8e#	make	.	.	.	.	.
.	.	4f#	'em	.	.	.	.	.
.	.	[8g	turn	.	.	.	.	.
=18	=18	=18	=18	=18	=18	=18	=18	=18
1F#Mm	F#:7	8g]	_	1r	.	.	32.003	.
.	.	4f#	their	.	.	.	.	.
.	.	[8e	heads	.	.	.	.	.
.	.	8e]	_	.	.	.	.	.
.	.	8r	.	.	.	.	.	.
.	.	4r	.	.	.	.	.	.
=19	=19	=19	=19	=19	=19	=19	=19	=19
1BM	B:maj	4d#	ev-	1r	.	.	33.832	.
.	.	4d#	-ery	.	.	.	.	.
.	.	4e	place	.	.	.	.	.
.	.	8d#	we	.	.	.	.	.
.	.	8f#	go	.	.	B	.	.
=20	=20	=20	=20	=20	=20	=20	=20	=20
1BM	B:maj	4r	.	1r	.	.	35.662	.
.	.	4d#	So	.	.	.	.	.
.	.	4e	won't	.	.	.	.	.
.	.	8f#	you	.	.	.	.	.
.	.	[8g#	please	.	.	A	.	.
=21	=21	=21	=21	=21	=21	=21	=21	=21
*>Letter>D	*>Letter>D	*>Letter>D	*>Letter>D	*>Letter>D	*>Letter>D	*>Letter>D	*>Letter>D	*>Letter>D
*>Label>Chorus	*>Label>Chorus	*>Label>Chorus	*>Label>Chorus	*>Label>Chorus	*>Label>Chorus	*>Label>Chorus	*>Label>Chorus	*>Label>Chorus
1EM	E:maj	8g#]	_	4r	.	.	37.491	newline
.	.	8r	.	.	.	.	.	.
.	.	4r	.	4e	Be	.	.	.
.	.	2r	.	2d#	my	.	.	.
=22	=22	=22	=22	=22	=22	=22	=22	=22
1EM	E:maj	4.r	.	8c#	Be	.	39.367	.
.	.	.	.	4c#	my	.	.	.
.	.	16r	.	[8d#	ba-	.	.	.
.	.	[16g#	Be	.	.	A	.	.
.	.	16g#]	_	4d#]	_	.	.	.
.	.	8.f#	my	.	.	.	.	.
.	.	16e	li-	8e	-by	.	.	.
.	.	8f#	-ttle	.	.	.	.	.
.	.	.	.	8r	.	.	.	.
.	.	[16g#	ba-	.	.	.	.	.
=23	=23	=23	=23	=23	=23	=23	=23	=23
1C#m	C#:min	8g#]	_	4r	.	.	41.242	.
.	.	[4.e	-by	.	.	a	.	.
.	.	.	.	4e	My	.	.	.
.	.	4e]	_	4.d#	one	.	.	.
.	.	4r	.	.	.	.	.	.
.	.	.	.	8d#	and	.	.	.
=24	=24	=24	=24	=24	=24	=24	=24	=24
1C#m	C#:min	4.r	.	4c#	on-	(B	43.118	.
.	.	.	.	8c#	-ly	a)	.	.
.	.	16r	.	[8d#	ba-	.	.	.
.	.	[16g#	Say	.	.	.	.	.
.	.	16g#]	_	4d#]	_	.	.	.
.	.	8f#	you'll	.	.	.	.	.
.	.	8e	be	.	.	A	.	.
.	.	.	.	8e	-by	a	.	.
.	.	8f#	my	.	.	.	.	.
.	.	.	.	8r	.	.	.	.
.	.	16f#	dar-	.	.	.	.	.
=25	=25	=25	=25	=25	=25	=25	=25	=25
1AM	A:maj	16g#	_	4r	.	.	44.993	newline
.	.	16f#	_	.	.	.	.	.
.	.	16e	_	.	.	.	.	.
.	.	8.f#	_	.	.	.	.	.
.	.	.	.	4e	Be	.	.	.
.	.	[8d#	-ling	.	.	a	.	.
.	.	4d#]	_	2d#	my	.	.	.
.	.	4r	.	.	.	.	.	.
=26	=26	=26	=26	=26	=26	=26	=26	=26
1AM	A:maj	4.r	.	8c#	Be	.	46.847	.
.	.	.	.	4c#	my	.	.	.
.	.	8a	Be	[8d#	ba-	A	.	.
.	.	6a	my	4d#]	_	.	.	.
.	.	6g#	ba-	.	.	.	.	.
.	.	.	.	8e	-by	.	.	.
.	.	6f#	-by	.	.	A	.	.
.	.	.	.	8r	.	.	.	.
=27	=27	=27	=27	=27	=27	=27	=27	=27
1BMm	B:7	4.a	now	4r	.	.	48.701	.
.	.	.	.	4e	My	.	.	.
.	.	16g#	_	.	.	.	.	.
.	.	16a	_	.	.	.	.	.
.	.	4f#	_	4.d#	one	.	.	.
.	.	8r	.	.	.	.	.	.
.	.	8a	Ooh	8d#	and	.	.	.
=28	=28	=28	=28	=28	=28	=28	=28	=28
1BMm	B:7	4b	Woh	4c#	on-	B	50.554	.
.	.	4a	oh	8c#	-ly	B	.	.
.	.	.	.	8f#	ba-	.	.	.
.	.	4g#	oh	4g#	_	B	.	.
.	.	4f#	oh	8f#	-by	B	.	.
.	.	.	.	8r	.	.	.	.
=29	=29	=29	=29	=29	=29	=29	=29	=29
*>Letter>B	*>Letter>B	*>Letter>B	*>Letter>B	*>Letter>B	*>Letter>B	*>Letter>B	*>Letter>B	*>Letter>B
*>Label>Verse	*>Label>Verse	*>Label>Verse	*>Label>Verse	*>Label>Verse	*>Label>Verse	*>Label>Verse	*>Label>Verse	*>Label>Verse
1EM	E:maj	2r	.	1r	.	.	52.408	newline
.	.	8r	.	.	.	.	.	.
.	.	8e	I'll	.	.	.	.	.
.	.	8e	make	.	.	.	.	.
.	.	8d#	you	.	.	.	.	.
=30	=30	=30	=30	=30	=30	=30	=30	=30
1EM	E:maj	8.d#	ha-	1r	.	.	54.281	.
.	.	8.c#	-ppy	.	.	a	.	.
.	.	8.d#	ba-	.	.	.	.	.
.	.	[8.e	-by	.	.	a	.	.
.	.	8e]	_	.	.	.	.	.
.	.	8r	.	.	.	.	.	.
=31	=31	=31	=31	=31	=31	=31	=31	=31
1F#m	F#:min	4.r	.	1r	.	.	56.155	.
.	.	[8f#	Just	.	.	.	.	.
.	.	8f#]	_	.	.	.	.	.
.	.	8f#	wait	.	.	.	.	.
.	.	4e	and	.	.	.	.	.
=32	=32	=32	=32	=32	=32	=32	=32	=32
1BM	B:maj	4d#	see	1r	.	A	58.029	.
.	.	4r	.	.	.	.	.	.
.	.	2r	.	.	.	.	.	.
=33	=33	=33	=33	=33	=33	=33	=33	=33
1EM	E:maj	4r	.	1r	.	.	59.903	.
.	.	8r	.	.	.	.	.	.
.	.	8e	For	.	.	.	.	.
.	.	4e	ev-	.	.	.	.	.
.	.	4d#	-ery	.	.	.	.	.
=34	=34	=34	=34	=34	=34	=34	=34	=34
1EM	E:maj	4d#	kiss	1r	.	.	61.776	.
.	.	8r	.	.	.	.	.	.
.	.	8c#	you	.	.	.	.	.
.	.	8d#	give	.	.	.	.	.
.	.	4.e	me	.	.	A	.	.
=35	=35	=35	=35	=35	=35	=35	=35	=35
1F#m	F#:min	4.r	.	1r	.	.	63.65	.
.	.	[8f#	I'll	.	.	.	.	.
.	.	8f#]	_	.	.	.	.	.
.	.	8f#	give	.	.	.	.	.
.	.	4e	you	.	.	.	.	.
=36	=36	=36	=36	=36	=36	=36	=36	=36
1BM	B:maj	4d#	three	1r	.	A	65.524	.
.	.	4r	.	.	.	.	.	.
.	.	2r	.	.	.	.	.	.
=37	=37	=37	=37	=37	=37	=37	=37	=37
*>Letter>C	*>Letter>C	*>Letter>C	*>Letter>C	*>Letter>C	*>Letter>C	*>Letter>C	*>Letter>C	*>Letter>C
*>Label>Bridge	*>Label>Bridge	*>Label>Bridge	*>Label>Bridge	*>Label>Bridge	*>Label>Bridge	*>Label>Bridge	*>Label>Bridge	*>Label>Bridge
1G#Mm	G#:7	4.r	.	1r	.	.	67.397	newline
.	.	[8g#	Oh	.	.	.	.	.
.	.	8g#]	_	.	.	.	.	.
.	.	8f##	since	.	.	.	.	.
.	.	8g#	the	.	.	.	.	.
.	.	[8a	day	.	.	.	.	.
=38	=38	=38	=38	=38	=38	=38	=38	=38
1G#Mm	G#:7	8a]	_	1r	.	.	69.269	.
.	.	4g#	I	.	.	.	.	.
.	.	[8f##	saw	.	.	.	.	.
.	.	8f	_	.	.	.	.	.
.	.	4.g#	you	.	.	.	.	.
=39	=39	=39	=39	=39	=39	=39	=39	=39
1C#Mm	C#:7	4.r	.	1r	.	.	71.14	.
.	.	8.g#	I	.	.	.	.	.
.	.	8.f##]	have	.	.	.	.	.
.	.	8.g#	been	.	.	.	.	.
.	.	[16a	wai-	.	.	.	.	.
=40	=40	=40	=40	=40	=40	=40	=40	=40
1C#Mm	C#:7	8a]	_	1r	.	.	73.011	.
.	.	4g#	-ting	.	.	.	.	.
.	.	[8e#	for	.	.	D	.	.
.	.	8e#]	_	.	.	.	.	.
.	.	4.c#	you	.	.	.	.	.
=41	=41	=41	=41	=41	=41	=41	=41	=41
1F#Mm	F#:7	4r	.	1r	.	.	74.882	newline
.	.	8r	.	.	.	.	.	.
.	.	8f#	You	.	.	.	.	.
.	.	8e#	know	.	.	.	.	.
.	.	4f#	I	.	.	.	.	.
.	.	[8g	will	.	.	.	.	.
=42	=42	=42	=42	=42	=42	=42	=42	=42
1F#Mm	F#:7	8g]	_	1r	.	.	76.718	.
.	.	4f#	a-	.	.	.	.	.
.	.	8e	-dore	.	.	D	.	.
.	.	8c#	_	.	.	.	.	.
.	.	8c#	you	.	.	.	.	.
.	.	4r	.	.	.	.	.	.
=43	=43	=43	=43	=43	=43	=43	=43	=43
1BM	B:maj	4d#	till	1r	.	.	78.555	.
.	.	4d#	e-	.	.	a	.	.
.	.	8e	-tern-	.	.	.	.	.
.	.	4e#	-i-	.	.	.	.	.
.	.	[8f#	-ty	.	.	A	.	.
=44	=44	=44	=44	=44	=44	=44	=44	=44
1BM	B:maj	8f#]	_	1r	.	.	80.391	.
.	.	8r	.	.	.	.	.	.
.	.	4g#	So	.	.	B	.	.
.	.	4b	won't	.	.	.	.	.
.	.	4g#	you	.	.	.	.	.
=45	=45	=45	=45	=45	=45	=45	=45	=45
*>Letter>D	*>Letter>D	*>Letter>D	*>Letter>D	*>Letter>D	*>Letter>D	*>Letter>D	*>Letter>D	*>Letter>D
*>Label>Chorus	*>Label>Chorus	*>Label>Chorus	*>Label>Chorus	*>Label>Chorus	*>Label>Chorus	*>Label>Chorus	*>Label>Chorus	*>Label>Chorus
1EM	E:maj	8f#	please	4r	.	A	82.228	newline
.	.	4.e	_	.	.	.	.	.
.	.	.	.	4e	Be	.	.	.
.	.	2r	.	2d#	my	.	.	.
=46	=46	=46	=46	=46	=46	=46	=46	=46
1EM	E:maj	4.r	.	8c#	Be	.	84.133	.
.	.	.	.	4c#	my	.	.	.
.	.	16r	.	[8d#	ba-	.	.	.
.	.	[16g#	Be	.	.	.	.	.
.	.	16g#]	_	4d#]	_	.	.	.
.	.	8.f#	my	.	.	.	.	.
.	.	16e	li-	8e	-by	.	.	.
.	.	8f#	-ttle	.	.	.	.	.
.	.	.	.	8r	.	.	.	.
.	.	[16g#	ba-	.	.	.	.	.
=47	=47	=47	=47	=47	=47	=47	=47	=47
1C#m	C#:min	8g#]	_	4r	.	.	86.038	.
.	.	[4.e	-by	.	.	a	.	.
.	.	.	.	4e	My	.	.	.
.	.	4.e]	_	4.d#	one	.	.	.
.	.	8r	.	8d#	and	.	.	.
=48	=48	=48	=48	=48	=48	=48	=48	=48
1C#m	C#:min	4.r	.	4c#	on-	.	87.943	.
.	.	.	.	8c#	-ly	.	.	.
.	.	16r	.	[8d#	ba-	.	.	.
.	.	[16g#	Say	.	.	.	.	.
.	.	16g#]	_	4d#]	_	.	.	.
.	.	8f#	you'll	.	.	.	.	.
.	.	8e	be	.	.	A	.	.
.	.	.	.	8e	-by	.	.	.
.	.	8f#	my	.	.	.	.	.
.	.	.	.	8r	.	.	.	.
.	.	16f#	dar-	.	.	.	.	.
=49	=49	=49	=49	=49	=49	=49	=49	=49
1AM	A:maj	16g#	_	4r	.	.	89.848	newline
.	.	16f#	_	.	.	.	.	.
.	.	16e	_	.	.	.	.	.
.	.	8f#	_	.	.	.	.	.
.	.	.	.	4e	Be	.	.	.
.	.	16e	_	.	.	.	.	.
.	.	[8d#	-ling	.	.	a	.	.
.	.	4d#]	_	2d#	my	.	.	.
.	.	4r	.	.	.	.	.	.
=50	=50	=50	=50	=50	=50	=50	=50	=50
1AM	A:maj	4.r	.	8c#	Be	.	91.723	.
.	.	.	.	4c#	my	.	.	.
.	.	8a	Be	[8d#	ba-	A	.	.
.	.	6a	my	4d#]	_	.	.	.
.	.	6g#	ba-	.	.	.	.	.
.	.	.	.	8e	-by	.	.	.
.	.	6f#	-by	.	.	a	.	.
.	.	.	.	8r	.	.	.	.
=51	=51	=51	=51	=51	=51	=51	=51	=51
1BMm	B:7	4.a	now	4r	.	.	93.598	.
.	.	.	.	4e	My	.	.	.
.	.	16g#	_	.	.	.	.	.
.	.	16a	_	.	.	.	.	.
.	.	4f#	_	4.d#	one	.	.	.
.	.	8r	.	.	.	.	.	.
.	.	8a	Ooh	8d#	and	B	.	.
=52	=52	=52	=52	=52	=52	=52	=52	=52
1BMm	B:7	4b	Woh	4c#	on-	B	95.473	.
.	.	4a	oh	8c#	-ly	B	.	.
.	.	.	.	8f#	ba-	.	.	.
.	.	4g#	oh	4g#	_	B	.	.
.	.	16g#	oh	8f#	-by	B	.	.
.	.	8.f#	_	.	.	.	.	.
.	.	.	.	8r	.	.	.	.
=53	=53	=53	=53	=53	=53	=53	=53	=53
*>Letter>B	*>Letter>B	*>Letter>B	*>Letter>B	*>Letter>B	*>Letter>B	*>Letter>B	*>Letter>B	*>Letter>B
*>Label>Solo	*>Label>Solo	*>Label>Solo	*>Label>Solo	*>Label>Solo	*>Label>Solo	*>Label>Solo	*>Label>Solo	*>Label>Solo
1EM	E:maj	2e	oh	1r	.	B	97.348	newline
.	.	2r	.	.	.	.	.	.
=54	=54	=54	=54	=54	=54	=54	=54	=54
1EM	E:maj	1r	.	1r	.	.	99.228	.
=55	=55	=55	=55	=55	=55	=55	=55	=55
1F#m	F#:min	1r	.	1r	.	.	101.108	.
=56	=56	=56	=56	=56	=56	=56	=56	=56
1BM	B:maj	1r	.	1r	.	.	102.988	.
=57	=57	=57	=57	=57	=57	=57	=57	=57
1EM	E:maj	1r	.	1r	.	.	104.868	.
=58	=58	=58	=58	=58	=58	=58	=58	=58
1EM	E:maj	1r	.	1r	.	.	106.748	.
=59	=59	=59	=59	=59	=59	=59	=59	=59
1F#m	F#:min	1r	.	1r	.	.	108.628	.
=60	=60	=60	=60	=60	=60	=60	=60	=60
1BM	B:maj	4.r	.	1r	.	.	110.508	.
.	.	8g#	So	.	.	.	.	.
.	.	8b	come	.	.	.	.	.
.	.	4g#	on	.	.	.	.	.
.	.	8g#	and	.	.	.	.	.
=61	=61	=61	=61	=61	=61	=61	=61	=61
*>Letter>D	*>Letter>D	*>Letter>D	*>Letter>D	*>Letter>D	*>Letter>D	*>Letter>D	*>Letter>D	*>Letter>D
*>Label>Chorus	*>Label>Chorus	*>Label>Chorus	*>Label>Chorus	*>Label>Chorus	*>Label>Chorus	*>Label>Chorus	*>Label>Chorus	*>Label>Chorus
1EM	E:maj	8f#	please	4r	.	A	112.388	newline
.	.	8e	_	.	.	.	.	.
.	.	8f#	_	4e	Be	.	.	.
.	.	8e	_	.	.	.	.	.
.	.	2r	.	2d#	my	.	.	.
=62	=62	=62	=62	=62	=62	=62	=62	=62
1EM	E:maj	4.r	.	8c#	Be	.	114.291	.
.	.	.	.	4c#	my	.	.	.
.	.	16r	.	[8d#	ba-	.	.	.
.	.	[16g#	Be	.	.	.	.	.
.	.	16g#]	_	4d#]	_	.	.	.
.	.	8.f#	my	.	.	.	.	.
.	.	16e	li-	8e	-by	.	.	.
.	.	8f#	-ttle	.	.	.	.	.
.	.	.	.	8r	.	.	.	.
.	.	[16g#	ba-	.	.	.	.	.
=63	=63	=63	=63	=63	=63	=63	=63	=63
1C#m	C#:min	8g#]	_	4r	.	.	116.193	.
.	.	[4.e	-by	.	.	.	.	.
.	.	.	.	4e	My	.	.	.
.	.	2e]	_	4.d#	one	.	.	.
.	.	.	.	8d#	and	.	.	.
=64	=64	=64	=64	=64	=64	=64	=64	=64
1C#m	C#:min	4.r	.	4c#	on-	.	118.095	.
.	.	.	.	8c#	-ly	.	.	.
.	.	16r	.	[8d#	ba-	.	.	.
.	.	[16g#	Say	.	.	.	.	.
.	.	16g#]	_	4d#]	_	.	.	.
.	.	8f#	you'll	.	.	.	.	.
.	.	8e	be	.	.	A	.	.
.	.	.	.	8e	-by	.	.	.
.	.	8f#	my	.	.	.	.	.
.	.	.	.	8r	.	.	.	.
.	.	16f#	dar-	.	.	.	.	.
=65	=65	=65	=65	=65	=65	=65	=65	=65
1AM	A:maj	16g#	_	4r	.	.	119.997	newline
.	.	16f#	_	.	.	.	.	.
.	.	16e	_	.	.	.	.	.
.	.	8f#	_	.	.	.	.	.
.	.	.	.	4e	Be	.	.	.
.	.	16e	_	.	.	.	.	.
.	.	[8d#	-ling	.	.	a	.	.
.	.	2d#]	_	2d#	my	.	.	.
=66	=66	=66	=66	=66	=66	=66	=66	=66
1AM	A:maj	4.r	.	8c#	Be	.	121.86	.
.	.	.	.	4c#	my	.	.	.
.	.	8a	Be	[8d#	ba-	A	.	.
.	.	6a	my	4d#]	_	.	.	.
.	.	6g#	ba-	.	.	.	.	.
.	.	.	.	8e	-by	.	.	.
.	.	6f#	-by	.	.	a	.	.
.	.	.	.	8r	.	.	.	.
=67	=67	=67	=67	=67	=67	=67	=67	=67
1BMm	B:7	4.a	now	4r	.	.	123.724	.
.	.	.	.	4e	My	.	.	.
.	.	16g#	_	.	.	.	.	.
.	.	16a	_	.	.	.	.	.
.	.	4f#	_	4.d#	one	.	.	.
.	.	4r	.	.	.	.	.	.
.	.	.	.	8d#	and	.	.	.
=68	=68	=68	=68	=68	=68	=68	=68	=68
1BMm	B:7	4b	Woh	4c#	on-	B	125.587	.
.	.	4a	oh	8c#	-ly	B	.	.
.	.	.	.	8f#	ba-	.	.	.
.	.	4g#	oh	4g#	_	B	.	.
.	.	4f#	oh	8f#	-by	B	.	.
.	.	.	.	8r	.	.	.	.
=69	=69	=69	=69	=69	=69	=69	=69	=69
1N	N	1r	.	1r	.	.	127.45	newline
=70	=70	=70	=70	=70	=70	=70	=70	=70
1N	N	1r	.	1r	.	.	129.336	.
=71	=71	=71	=71	=71	=71	=71	=71	=71
*>Letter>D	*>Letter>D	*>Letter>D	*>Letter>D	*>Letter>D	*>Letter>D	*>Letter>D	*>Letter>D	*>Letter>D
*>Label>Chorus	*>Label>Chorus	*>Label>Chorus	*>Label>Chorus	*>Label>Chorus	*>Label>Chorus	*>Label>Chorus	*>Label>Chorus	*>Label>Chorus
1EM	E:maj	1r	.	4r	.	.	131.221	newline
.	.	.	.	4e	Be	.	.	.
.	.	.	.	2d#	my	.	.	.
=72	=72	=72	=72	=72	=72	=72	=72	=72
1EM	E:maj	4.r	.	8c#	Be	.	133.059	.
.	.	.	.	4c#	my	.	.	.
.	.	16r	.	[8d#	ba-	.	.	.
.	.	[16g#	Be	.	.	.	.	.
.	.	16g#]	_	4d#]	_	.	.	.
.	.	8.f#	my	.	.	.	.	.
.	.	16e	li-	8e	-by	.	.	.
.	.	8f#	-ttle	.	.	.	.	.
.	.	.	.	8r	.	.	.	.
.	.	[16g#	ba-	.	.	.	.	.
=73	=73	=73	=73	=73	=73	=73	=73	=73
1C#m	C#:min	8g#]	_	4r	.	.	134.898	.
.	.	[4.e	-by	.	.	.	.	.
.	.	.	.	4e	My	.	.	.
.	.	2e]	_	4.d#	one	.	.	.
.	.	.	.	8d#	and	.	.	.
=74	=74	=74	=74	=74	=74	=74	=74	=74
1C#m	C#:min	4.r	.	4c#	on-	.	136.736	.
.	.	.	.	8c#	-ly	.	.	.
.	.	16f#	Oh	[8d#	ba-	.	.	.
.	.	16g#	_	.	.	.	.	.
.	.	16f#	_	4d#]	_	.	.	.
.	.	8e	_	.	.	.	.	.
.	.	[16f#	_	.	.	.	.	.
.	.	8f#]	_	8e	-by	.	.	.
.	.	16g#	_	8r	.	.	.	.
.	.	16f#	_	.	.	.	.	.
=75	=75	=75	=75	=75	=75	=75	=75	=75
1AM	A:maj	8e	_	4r	.	.	138.574	newline
.	.	8f#	_	.	.	.	.	.
.	.	2.e	_	4e	Be	.	.	.
.	.	.	.	2d#	my	.	.	.
=76	=76	=76	=76	=76	=76	=76	=76	=76
1AM	A:maj	4.r	.	8c#	Be	.	140.427	.
.	.	.	.	4c#	my	.	.	.
.	.	16g#	Oh	[8d#	ba-	.	.	.
.	.	16a	_	.	.	.	.	.
.	.	8g#	_	4d#]	_	.	.	.
.	.	4f#	_	.	.	.	.	.
.	.	.	.	8e	-by	.	.	.
.	.	8a	_	8r	.	.	.	.
=77	=77	=77	=77	=77	=77	=77	=77	=77
1BMm	B:7	8a	_	4r	.	.	142.281	.
.	.	8a	_	.	.	.	.	.
.	.	8a	_	4e	My	.	.	.
.	.	8a	_	.	.	.	.	.
.	.	8a	_	4.d#	one	.	.	.
.	.	8r	.	.	.	.	.	.
.	.	8r	.	.	.	.	.	.
.	.	8a	Ooh	8d#	and	B	.	.
=78	=78	=78	=78	=78	=78	=78	=78	=78
1BMm	B:7	4b	Woh	4c#	on-	B	144.134	.
.	.	4a	oh	8c#	-ly	B	.	.
.	.	.	.	8f#	ba-	.	.	.
.	.	4g#	oh	4g#	_	B	.	.
.	.	4f#	oh	8f#	-by	B	.	.
.	.	.	.	8r	.	.	.	.
=79	=79	=79	=79	=79	=79	=79	=79	=79
*>Letter>D	*>Letter>D	*>Letter>D	*>Letter>D	*>Letter>D	*>Letter>D	*>Letter>D	*>Letter>D	*>Letter>D
*>Label>Chorus	*>Label>Chorus	*>Label>Chorus	*>Label>Chorus	*>Label>Chorus	*>Label>Chorus	*>Label>Chorus	*>Label>Chorus	*>Label>Chorus
1EM	E:maj	[1e	oh	4r	.	.	145.987	newline
.	.	.	.	4e	Be	.	.	.
.	.	.	.	2d#	my	.	.	.
=80	=80	=80	=80	=80	=80	=80	=80	=80
1EM	E:maj	4e]	_	8c#	Be	.	147.822	.
.	.	.	.	4c#	my	.	.	.
.	.	8r	.	.	.	.	.	.
.	.	16g#	Oh	[8d#	ba-	B	.	.
.	.	16f#	_	.	.	.	.	.
.	.	8e	_	4d#]	_	.	.	.
.	.	8e	oh	.	.	B	.	.
.	.	8f#	_	8e	-by	.	.	.
.	.	[8e	_	8r	.	.	.	.
=81	=81	=81	=81	=81	=81	=81	=81	=81
1C#m	C#:min	1e]	_	4r	.	.	149.656	.
.	.	.	.	4e	My	.	.	.
.	.	.	.	4.d#	one	.	.	.
.	.	.	.	8d#	and	.	.	.
=82	=82	=82	=82	=82	=82	=82	=82	=82
1C#m	C#:min	4.r	.	4c#	on-	.	151.49	.
.	.	.	.	8c#	-ly	.	.	.
.	.	[8g#	Oh	[8d#	ba-	B	.	.
.	.	16g#]	_	4d#]	_	.	.	.
.	.	8f#	_	.	.	.	.	.
.	.	[16e	_	.	.	.	.	.
.	.	16e]	_	8e	-by	.	.	.
.	.	8.f#	_	.	.	.	.	.
.	.	.	.	8r	.	.	.	.
=83	=83	=83	=83	=83	=83	=83	=83	=83
1AM	A:maj	16g#	_	4r	.	.	153.324	newline
.	.	16f#	_	.	.	.	.	.
.	.	8e	_	.	.	.	.	.
.	.	8f#	Oh	4e	Be	B	.	.
.	.	[8e	_	.	.	.	.	.
.	.	2e]	_	2d#	my	.	.	.
=84	=84	=84	=84	=84	=84	=84	=84	=84
1AM	A:maj	4.r	.	8c#	Be	.	154.647	.
.	.	.	.	4c#	my	.	.	.
.	.	8a	Be	[8d#	ba-	A	.	.
.	.	6a	my	4d#]	_	.	.	.
.	.	6g#	ba-	.	.	.	.	.
.	.	.	.	8e	-by	.	.	.
.	.	6f#	-by	.	.	A	.	.
.	.	.	.	8r	.	.	.	.
=85	=85	=85	=85	=85	=85	=85	=85	=85
1BMm	B:7	4.a	now	4r	.	.	155.971	.
.	.	.	.	4e	My	.	.	.
.	.	16g#	_	.	.	.	.	.
.	.	16a	_	.	.	.	.	.
.	.	4f#	_	4.d#	one	.	.	.
.	.	4r	.	.	.	.	.	.
.	.	.	.	8d#	and	.	.	.
=86	=86	=86	=86	=86	=86	=86	=86	=86
1BMm	B:7	1r	.	4c#	on-	.	157.294	.
.	.	.	.	8c#	-ly	.	.	.
.	.	.	.	8f#	ba-	.	.	.
.	.	.	.	4g#	_	.	.	.
.	.	.	.	8f#	-by	.	.	.
.	.	.	.	8r	.	.	.	.
1r;	1r	r;	.	r;	.	.	158.618	.
1r;	1r	r;	.	r;	.	.	159.007	.
*-	*-	*-	*-	*-	*-	*-	*-	*-
!!!BillboardChartDate: 1963/09/28, 1963/09/28
!!!BillboardPeak: 2, 2
!!!BillboardWeeksOnChart: 13, 13
!!!COC: The Ronettes
!!!ENC: Nathaniel Condit-Schultz
!!!EST: Awating manual error checking and editing.
!!!OTL: Be My Baby
!!!RDF**chordsym: original McGill chord annotation + (implied pitch class set, with bass pitch in first position)
!!!RDF**harmony: **recip + pitch class of root + harmonic quality
!!!RDF**leadinstrument: original McGill primary instrumentation annotation
!!!RDF**phrase: newline = linebreak in original McGill transcription
!!!RDF**timestamp: McGill audio timestamp in seconds
!!!RDT: 2017/01/12/
!!!SampleActualRank: 3, 3
!!!SampleID#: 120, 903
!!!SampleTargetRank: 1, 3
!!!MBID: f3bac840-b32d-4a4d-90e1-19c17a9f3ec6